icons/mail-open.svg

<svg width="24" height="24" viewBox="0 0 24 24" fill="none" xmlns="http://www.w3.org/2000/svg">
<path fill-rule="evenodd" clip-rule="evenodd" d="M11.4453 1.16795C11.7812 0.944017 12.2188 0.944017 12.5547 1.16795L21.5547 7.16795C21.8329 7.35342 22 7.66565 22 8V20C22 20.5523 21.5523 21 21 21H3C2.44772 21 2 20.5523 2 20V8C2 7.66565 2.1671 7.35342 2.4453 7.16795L11.4453 1.16795ZM4 8.53518V19H20V8.53518L12 3.20185L4 8.53518ZM5.23178 9.35982C5.58534 8.93554 6.21591 8.87821 6.64018 9.23178L12 13.6983L17.3598 9.23178C17.7841 8.87821 18.4147 8.93554 18.7682 9.35982C19.1218 9.78409 19.0645 10.4147 18.6402 10.7682L12.6402 15.7682C12.2693 16.0773 11.7307 16.0773 11.3598 15.7682L5.35982 10.7682C4.93554 10.4147 4.87821 9.78409 5.23178 9.35982Z" fill="black"/>
</svg>

<svg
  width="24"
  height="24"
  viewBox="0 0 24 24"
  xmlns="http://www.w3.org/2000/svg"
>
  <path
    fill-rule="evenodd"
    clip-rule="evenodd"
    d="M11.445 1.168a1 1 0 0 1 1.11 0l9 6A1 1 0 0 1 22 8v12a1 1 0 0 1-1 1H3a1 1 0 0 1-1-1V8a1 1 0 0 1 .445-.832l9-6zM4 8.535V19h16V8.535l-8-5.333-8 5.333zm1.232.825a1 1 0 0 1 1.408-.128L12 13.698l5.36-4.466a1 1 0 0 1 1.28 1.536l-6 5a1 1 0 0 1-1.28 0l-6-5a1 1 0 0 1-.128-1.408z"
  />
</svg>
